avogadro/qtplugins/templatetool/centers/6-oct.svg

<svg xmlns="http://www.w3.org/2000/svg" xmlns:xlink="http://www.w3.org/1999/xlink" width="35" height="33" viewBox="0 0 35 33" style="background-color:#ffffff00" version="1.1"><path fill="#000" stroke="none" d="M 3656.55,3031.01 L 3631.55,2976.47 L 3929.82,2865.83 L 3935.84,2870 L 3929.82,2880.17 L 3656.55,3031.01 Z" transform="matrix(0.05 0 0 0.05 -179 -127)"/><path fill="#000" stroke="none" d="M 3657.7,2789.6 L 3680.24,2733.99 L 3690.94,2739.64 L 3669.3,2792.99 L 3657.7,2789.6 Z" transform="matrix(0.05 0 0 0.05 -179 -127)"/><path fill="#000" stroke="none" d="M 3712.14,2805.53 L 3730.41,2760.48 L 3741.1,2766.12 L 3723.75,2808.93 L 3712.14,2805.53 Z" transform="matrix(0.05 0 0 0.05 -179 -127)"/><path fill="#000" stroke="none" d="M 3766.59,2821.46 L 3780.58,2786.96 L 3791.27,2792.61 L 3778.19,2824.86 L 3766.59,2821.46 Z" transform="matrix(0.05 0 0 0.05 -179 -127)"/><path fill="#000" stroke="none" d="M 3821.03,2837.39 L 3830.74,2813.44 L 3841.44,2819.09 L 3832.64,2840.79 L 3821.03,2837.39 Z" transform="matrix(0.05 0 0 0.05 -179 -127)"/><path fill="#000" stroke="none" d="M 3875.48,2853.33 L 3880.91,2839.93 L 3891.6,2845.57 L 3887.08,2856.72 L 3875.48,2853.33 Z" transform="matrix(0.05 0 0 0.05 -179 -127)"/><path fill="#000" stroke="none" d="M 4191.43,2733.99 L 4213.97,2789.6 L 4202.37,2792.99 L 4180.74,2739.64 L 4191.43,2733.99 Z" transform="matrix(0.05 0 0 0.05 -179 -127)"/><path fill="#000" stroke="none" d="M 4141.26,2760.48 L 4159.53,2805.53 L 4147.92,2808.93 L 4130.57,2766.12 L 4141.26,2760.48 Z" transform="matrix(0.05 0 0 0.05 -179 -127)"/><path fill="#000" stroke="none" d="M 4091.1,2786.96 L 4105.08,2821.46 L 4093.48,2824.86 L 4080.4,2792.61 L 4091.1,2786.96 Z" transform="matrix(0.05 0 0 0.05 -179 -127)"/><path fill="#000" stroke="none" d="M 4040.93,2813.44 L 4050.64,2837.39 L 4039.03,2840.79 L 4030.23,2819.09 L 4040.93,2813.44 Z" transform="matrix(0.05 0 0 0.05 -179 -127)"/><path fill="#000" stroke="none" d="M 3990.76,2839.93 L 3996.19,2853.33 L 3984.59,2856.72 L 3980.07,2845.57 L 3990.76,2839.93 Z" transform="matrix(0.05 0 0 0.05 -179 -127)"/><path fill="#000" stroke="none" d="M 4228.41,2976.67 L 4202.52,3030.8 L 3941.85,2880.4 L 3935.84,2870 L 3941.85,2865.9 L 4228.41,2976.67 Z" transform="matrix(0.05 0 0 0.05 -179 -127)"/><path fill="#000" stroke="none" d="M 3929.82,2594.02 L 3941.85,2594.02 L 3941.85,2865.9 L 3935.84,2870 L 3929.82,2865.83 L 3929.82,2594.02 Z" transform="matrix(0.05 0 0 0.05 -179 -127)"/><path fill="#000" stroke="none" d="M 3941.85,3145.98 L 3929.82,3145.98 L 3929.82,2880.17 L 3935.84,2870 L 3941.85,2880.4 L 3941.85,3145.98 Z" transform="matrix(0.05 0 0 0.05 -179 -127)"/><path fill="#108080" stroke="none" d="M 3806.25,2870 A 129.586,129.586 0 1 0 4065.42,2870A 129.586,129.586 0 1 0 3806.25,2870Z" transform="matrix(0.05 0 0 0.05 -179 -127)"/><path fill="#1e8787" stroke="none" d="M 3807.75,2867.98 A 126.059,126.059 0 1 0 4059.87,2867.98A 126.059,126.059 0 1 0 3807.75,2867.98Z" transform="matrix(0.05 0 0 0.05 -179 -127)"/><path fill="#2c8f8f" stroke="none" d="M 3809.26,2865.95 A 122.531,122.531 0 1 0 4054.32,2865.95A 122.531,122.531 0 1 0 3809.26,2865.95Z" transform="matrix(0.05 0 0 0.05 -179 -127)"/><path fill="#3a9696" stroke="none" d="M 3810.76,2863.93 A 119.004,119.004 0 1 0 4048.77,2863.93A 119.004,119.004 0 1 0 3810.76,2863.93Z" transform="matrix(0.05 0 0 0.05 -179 -127)"/><path fill="#489d9d" stroke="none" d="M 3812.26,2861.9 A 115.477,115.477 0 1 0 4043.21,2861.9A 115.477,115.477 0 1 0 3812.26,2861.9Z" transform="matrix(0.05 0 0 0.05 -179 -127)"/><path fill="#54a4a4" stroke="none" d="M 3813.76,2859.88 A 111.949,111.949 0 1 0 4037.66,2859.88A 111.949,111.949 0 1 0 3813.76,2859.88Z" transform="matrix(0.05 0 0 0.05 -179 -127)"/><path fill="#61abab" stroke="none" d="M 3815.27,2857.85 A 108.422,108.422 0 1 0 4032.11,2857.85A 108.422,108.422 0 1 0 3815.27,2857.85Z" transform="matrix(0.05 0 0 0.05 -179 -127)"/><path fill="#6db1b1" stroke="none" d="M 3816.77,2855.83 A 104.895,104.895 0 1 0 4026.56,2855.83A 104.895,104.895 0 1 0 3816.77,2855.83Z" transform="matrix(0.05 0 0 0.05 -179 -127)"/><path fill="#78b7b7" stroke="none" d="M 3818.27,2853.8 A 101.367,101.367 0 1 0 4021,2853.8A 101.367,101.367 0 1 0 3818.27,2853.8Z" transform="matrix(0.05 0 0 0.05 -179 -127)"/><path fill="#83bdbd" stroke="none" d="M 3819.77,2851.78 A 97.8398,97.8398 0 1 0 4015.45,2851.78A 97.8398,97.8398 0 1 0 3819.77,2851.78Z" transform="matrix(0.05 0 0 0.05 -179 -127)"/><path fill="#8ec2c2" stroke="none" d="M 3821.28,2849.75 A 94.3125,94.3125 0 1 0 4009.9,2849.75A 94.3125,94.3125 0 1 0 3821.28,2849.75Z" transform="matrix(0.05 0 0 0.05 -179 -127)"/><path fill="#98c8c8" stroke="none" d="M 3822.78,2847.73 A 90.7852,90.7852 0 1 0 4004.35,2847.73A 90.7852,90.7852 0 1 0 3822.78,2847.73Z" transform="matrix(0.05 0 0 0.05 -179 -127)"/><path fill="#a1cdcd" stroke="none" d="M 3824.28,2845.7 A 87.2578,87.2578 0 1 0 3998.8,2845.7A 87.2578,87.2578 0 1 0 3824.28,2845.7Z" transform="matrix(0.05 0 0 0.05 -179 -127)"/><path fill="#aad2d2" stroke="none" d="M 3825.78,2843.68 A 83.7305,83.7305 0 1 0 3993.24,2843.68A 83.7305,83.7305 0 1 0 3825.78,2843.68Z" transform="matrix(0.05 0 0 0.05 -179 -127)"/><path fill="#b3d6d6" stroke="none" d="M 3827.29,2841.65 A 80.2031,80.2031 0 1 0 3987.69,2841.65A 80.2031,80.2031 0 1 0 3827.29,2841.65Z" transform="matrix(0.05 0 0 0.05 -179 -127)"/><path fill="#bbdbdb" stroke="none" d="M 3828.79,2839.63 A 76.6758,76.6758 0 1 0 3982.14,2839.63A 76.6758,76.6758 0 1 0 3828.79,2839.63Z" transform="matrix(0.05 0 0 0.05 -179 -127)"/><path fill="#c3dfdf" stroke="none" d="M 3830.29,2837.6 A 73.1484,73.1484 0 1 0 3976.59,2837.6A 73.1484,73.1484 0 1 0 3830.29,2837.6Z" transform="matrix(0.05 0 0 0.05 -179 -127)"/><path fill="#cae3e3" stroke="none" d="M 3831.79,2835.58 A 69.6211,69.6211 0 1 0 3971.04,2835.58A 69.6211,69.6211 0 1 0 3831.79,2835.58Z" transform="matrix(0.05 0 0 0.05 -179 -127)"/><path fill="#d1e6e6" stroke="none" d="M 3833.3,2833.55 A 66.0938,66.0938 0 1 0 3965.48,2833.55A 66.0938,66.0938 0 1 0 3833.3,2833.55Z" transform="matrix(0.05 0 0 0.05 -179 -127)"/><path fill="#d7eaea" stroke="none" d="M 3834.8,2831.53 A 62.5664,62.5664 0 1 0 3959.93,2831.53A 62.5664,62.5664 0 1 0 3834.8,2831.53Z" transform="matrix(0.05 0 0 0.05 -179 -127)"/><path fill="#ddeded" stroke="none" d="M 3836.3,2829.5 A 59.0391,59.0391 0 1 0 3954.38,2829.5A 59.0391,59.0391 0 1 0 3836.3,2829.5Z" transform="matrix(0.05 0 0 0.05 -179 -127)"/><path fill="#e2efef" stroke="none" d="M 3837.8,2827.48 A 55.5117,55.5117 0 1 0 3948.83,2827.48A 55.5117,55.5117 0 1 0 3837.8,2827.48Z" transform="matrix(0.05 0 0 0.05 -179 -127)"/><path fill="#e7f2f2" stroke="none" d="M 3839.31,2825.45 A 51.9844,51.9844 0 1 0 3943.28,2825.45A 51.9844,51.9844 0 1 0 3839.31,2825.45Z" transform="matrix(0.05 0 0 0.05 -179 -127)"/><path fill="#ecf4f4" stroke="none" d="M 3840.81,2823.43 A 48.457,48.457 0 1 0 3937.72,2823.43A 48.457,48.457 0 1 0 3840.81,2823.43Z" transform="matrix(0.05 0 0 0.05 -179 -127)"/><path fill="#f0f7f7" stroke="none" d="M 3842.31,2821.41 A 44.9297,44.9297 0 1 0 3932.17,2821.41A 44.9297,44.9297 0 1 0 3842.31,2821.41Z" transform="matrix(0.05 0 0 0.05 -179 -127)"/><path fill="#f3f8f8" stroke="none" d="M 3843.81,2819.38 A 41.4023,41.4023 0 1 0 3926.62,2819.38A 41.4023,41.4023 0 1 0 3843.81,2819.38Z" transform="matrix(0.05 0 0 0.05 -179 -127)"/><path fill="#f6fafa" stroke="none" d="M 3845.32,2817.36 A 37.875,37.875 0 1 0 3921.07,2817.36A 37.875,37.875 0 1 0 3845.32,2817.36Z" transform="matrix(0.05 0 0 0.05 -179 -127)"/><path fill="#f9fbfb" stroke="none" d="M 3846.82,2815.33 A 34.3477,34.3477 0 1 0 3915.51,2815.33A 34.3477,34.3477 0 1 0 3846.82,2815.33Z" transform="matrix(0.05 0 0 0.05 -179 -127)"/><path fill="#fbfdfd" stroke="none" d="M 3848.32,2813.31 A 30.8203,30.8203 0 1 0 3909.96,2813.31A 30.8203,30.8203 0 1 0 3848.32,2813.31Z" transform="matrix(0.05 0 0 0.05 -179 -127)"/><path fill="#fcfdfd" stroke="none" d="M 3849.82,2811.28 A 27.293,27.293 0 1 0 3904.41,2811.28A 27.293,27.293 0 1 0 3849.82,2811.28Z" transform="matrix(0.05 0 0 0.05 -179 -127)"/><path fill="#fefefe" stroke="none" d="M 3851.33,2809.26 A 23.7656,23.7656 0 1 0 3898.86,2809.26A 23.7656,23.7656 0 1 0 3851.33,2809.26Z" transform="matrix(0.05 0 0 0.05 -179 -127)"/><path fill="#fefefe" stroke="none" d="M 3852.83,2807.23 A 20.2383,20.2383 0 1 0 3893.31,2807.23A 20.2383,20.2383 0 1 0 3852.83,2807.23Z" transform="matrix(0.05 0 0 0.05 -179 -127)"/><path fill="none" stroke="#108080" stroke-width="12" d="M 3806.25,2870 A 129.586,129.586 0 1 0 4065.42,2870A 129.586,129.586 0 1 0 3806.25,2870Z" transform="matrix(0.05 0 0 0.05 -179 -127)"/></svg>

<svg height="33" viewBox="0 0 35 33" width="35" xmlns="http://www.w3.org/2000/svg"><g transform="matrix(.05 0 0 .05 -179 -127)"><path d="m3656.55 3031.01-25-54.54 298.27-110.64 6.02 4.17-6.02 10.17z"/><path d="m3657.7 2789.6 22.54-55.61 10.7 5.65-21.64 53.35z"/><path d="m3712.14 2805.53 18.27-45.05 10.69 5.64-17.35 42.81z"/><path d="m3766.59 2821.46 13.99-34.5 10.69 5.65-13.08 32.25z"/><path d="m3821.03 2837.39 9.71-23.95 10.7 5.65-8.8 21.7z"/><path d="m3875.48 2853.33 5.43-13.4 10.69 5.64-4.52 11.15z"/><path d="m4191.43 2733.99 22.54 55.61-11.6 3.39-21.63-53.35z"/><path d="m4141.26 2760.48 18.27 45.05-11.61 3.4-17.35-42.81z"/><path d="m4091.1 2786.96 13.98 34.5-11.6 3.4-13.08-32.25z"/><path d="m4040.93 2813.44 9.71 23.95-11.61 3.4-8.8-21.7z"/><path d="m3990.76 2839.93 5.43 13.4-11.6 3.39-4.52-11.15z"/><path d="m4228.41 2976.67-25.89 54.13-260.67-150.4-6.01-10.4 6.01-4.1z"/><path d="m3929.82 2594.02h12.03v271.88l-6.01 4.1-6.02-4.17z"/><path d="m3941.85 3145.98h-12.03v-265.81l6.02-10.17 6.01 10.4z"/><path d="m3806.25 2870a129.586 129.586 0 1 0 259.17 0 129.586 129.586 0 1 0 -259.17 0z" fill="#108080"/><path d="m3807.75 2867.98a126.059 126.059 0 1 0 252.12 0 126.059 126.059 0 1 0 -252.12 0z" fill="#1e8787"/><path d="m3809.26 2865.95a122.531 122.531 0 1 0 245.06 0 122.531 122.531 0 1 0 -245.06 0z" fill="#2c8f8f"/><path d="m3810.76 2863.93a119.004 119.004 0 1 0 238.01 0 119.004 119.004 0 1 0 -238.01 0z" fill="#3a9696"/><path d="m3812.26 2861.9a115.477 115.477 0 1 0 230.95 0 115.477 115.477 0 1 0 -230.95 0z" fill="#489d9d"/><path d="m3813.76 2859.88a111.949 111.949 0 1 0 223.9 0 111.949 111.949 0 1 0 -223.9 0z" fill="#54a4a4"/><path d="m3815.27 2857.85a108.422 108.422 0 1 0 216.84 0 108.422 108.422 0 1 0 -216.84 0z" fill="#61abab"/><path d="m3816.77 2855.83a104.895 104.895 0 1 0 209.79 0 104.895 104.895 0 1 0 -209.79 0z" fill="#6db1b1"/><path d="m3818.27 2853.8a101.367 101.367 0 1 0 202.73 0 101.367 101.367 0 1 0 -202.73 0z" fill="#78b7b7"/><path d="m3819.77 2851.78a97.84 97.84 0 1 0 195.68 0 97.84 97.84 0 1 0 -195.68 0z" fill="#83bdbd"/><path d="m3821.28 2849.75a94.313 94.313 0 1 0 188.62 0 94.313 94.313 0 1 0 -188.62 0z" fill="#8ec2c2"/><path d="m3822.78 2847.73a90.785 90.785 0 1 0 181.57 0 90.785 90.785 0 1 0 -181.57 0z" fill="#98c8c8"/><path d="m3824.28 2845.7a87.258 87.258 0 1 0 174.52 0 87.258 87.258 0 1 0 -174.52 0z" fill="#a1cdcd"/><path d="m3825.78 2843.68a83.731 83.731 0 1 0 167.46 0 83.731 83.731 0 1 0 -167.46 0z" fill="#aad2d2"/><path d="m3827.29 2841.65a80.203 80.203 0 1 0 160.4 0 80.203 80.203 0 1 0 -160.4 0z" fill="#b3d6d6"/><path d="m3828.79 2839.63a76.676 76.676 0 1 0 153.35 0 76.676 76.676 0 1 0 -153.35 0z" fill="#bbdbdb"/><path d="m3830.29 2837.6a73.148 73.148 0 1 0 146.3 0 73.148 73.148 0 1 0 -146.3 0z" fill="#c3dfdf"/><path d="m3831.79 2835.58a69.621 69.621 0 1 0 139.25 0 69.621 69.621 0 1 0 -139.25 0z" fill="#cae3e3"/><path d="m3833.3 2833.55a66.094 66.094 0 1 0 132.18 0 66.094 66.094 0 1 0 -132.18 0z" fill="#d1e6e6"/><path d="m3834.8 2831.53a62.566 62.566 0 1 0 125.13 0 62.566 62.566 0 1 0 -125.13 0z" fill="#d7eaea"/><path d="m3836.3 2829.5a59.039 59.039 0 1 0 118.08 0 59.039 59.039 0 1 0 -118.08 0z" fill="#ddeded"/><path d="m3837.8 2827.48a55.512 55.512 0 1 0 111.03 0 55.512 55.512 0 1 0 -111.03 0z" fill="#e2efef"/><path d="m3839.31 2825.45a51.984 51.984 0 1 0 103.97 0 51.984 51.984 0 1 0 -103.97 0z" fill="#e7f2f2"/><path d="m3840.81 2823.43a48.457 48.457 0 1 0 96.91 0 48.457 48.457 0 1 0 -96.91 0z" fill="#ecf4f4"/><path d="m3842.31 2821.41a44.93 44.93 0 1 0 89.86 0 44.93 44.93 0 1 0 -89.86 0z" fill="#f0f7f7"/><path d="m3843.81 2819.38a41.402 41.402 0 1 0 82.81 0 41.402 41.402 0 1 0 -82.81 0z" fill="#f3f8f8"/><path d="m3845.32 2817.36a37.875 37.875 0 1 0 75.75 0 37.875 37.875 0 1 0 -75.75 0z" fill="#f6fafa"/><path d="m3846.82 2815.33a34.348 34.348 0 1 0 68.69 0 34.348 34.348 0 1 0 -68.69 0z" fill="#f9fbfb"/><path d="m3848.32 2813.31a30.82 30.82 0 1 0 61.64 0 30.82 30.82 0 1 0 -61.64 0z" fill="#fbfdfd"/><path d="m3849.82 2811.28a27.293 27.293 0 1 0 54.59 0 27.293 27.293 0 1 0 -54.59 0z" fill="#fcfdfd"/><path d="m3851.33 2809.26a23.766 23.766 0 1 0 47.53 0 23.766 23.766 0 1 0 -47.53 0z" fill="#fefefe"/><path d="m3852.83 2807.23a20.238 20.238 0 1 0 40.48 0 20.238 20.238 0 1 0 -40.48 0z" fill="#fefefe"/><path d="m3806.25 2870a129.586 129.586 0 1 0 259.17 0 129.586 129.586 0 1 0 -259.17 0z" fill="none" stroke="#108080" stroke-width="12"/></g></svg>
